src/icons/svgs/16/link.svg

<svg width="16" height="16" viewBox="0 0 16 16" fill="none" xmlns="http://www.w3.org/2000/svg">
<path d="M2.3411 12.1912C2.92 12.7305 3.63702 13 4.37232 13C5.10763 13 5.84212 12.7305 6.40273 12.1912L7.28347 11.3443C6.97656 11.1879 6.68487 11.001 6.43219 10.758C6.36829 10.6966 6.31239 10.6307 6.25462 10.5659L5.48357 11.3073C5.18685 11.5928 4.80904 11.75 4.37232 11.75C3.95247 11.75 3.5578 11.5928 3.26104 11.3074C2.96428 11.0221 2.80077 10.6426 2.80077 10.2389C2.80077 9.83516 2.96426 9.45566 3.26104 9.17031L5.96866 6.5668C6.26339 6.29883 6.65948 6.125 7.07791 6.125C7.49635 6.125 7.89243 6.28219 8.1892 6.56758C8.48758 6.85352 8.66836 7.23242 8.66836 7.63672C8.66836 8.04102 8.50491 8.41992 8.20809 8.70527L8.1179 8.77344C8.16055 8.84961 8.20524 8.92773 8.27024 8.99023C8.44493 9.1582 8.67445 9.25 8.92226 9.25C9.16459 9.25 9.39148 9.15891 9.56433 8.99668C10.1881 7.94277 10.0443 6.58262 9.10954 5.68418C8.54852 5.14453 7.81322 4.875 7.07791 4.875C6.34302 4.875 5.60812 5.14453 5.0475 5.68379L2.3411 8.28711C1.76322 8.84277 1.48311 9.57637 1.50079 10.3047C1.51846 11.0059 1.79674 11.6687 2.3411 12.1912ZM9.74694 5.43359L10.5168 4.69336C10.8133 4.42383 11.2094 4.25 11.6279 4.25C12.0477 4.25 12.4424 4.40717 12.7391 4.69258C13.0359 4.97793 13.1994 5.35742 13.1994 5.76113C13.1994 6.16484 13.0359 6.54434 12.7391 6.82969L10.0315 9.4332C9.73678 9.71875 9.35898 9.875 8.92226 9.875C8.48555 9.875 8.10774 9.71781 7.81098 9.43242C7.51402 9.14707 7.35071 8.76758 7.35071 8.36387C7.35071 7.96016 7.51416 7.58066 7.81098 7.29531L7.88228 7.22656C7.83974 7.14963 7.79658 7.07236 7.73065 7.00879C7.55525 6.8418 7.32369 6.75 7.07791 6.75C6.83559 6.75 6.6087 6.84109 6.43584 7.00332C5.81206 8.05723 5.95587 9.41738 6.89063 10.3158C7.46994 10.8555 8.18696 11.125 8.92226 11.125C9.65757 11.125 10.3908 10.8555 10.9515 10.3164L13.6589 7.71289C14.2195 7.17383 14.5 6.46719 14.5 5.76055C14.5 5.05391 14.2197 4.34727 13.6589 3.80801C13.0983 3.26953 12.3632 3 11.6279 3C10.893 3 10.1581 3.26953 9.59744 3.80879L8.7167 4.65566C9.02362 4.81215 9.31531 4.99902 9.56799 5.24199C9.63319 5.30273 9.68803 5.36914 9.74694 5.43359Z" fill="black"/>
</svg>

<svg width="16" height="16" viewBox="0 0 16 16" xmlns="http://www.w3.org/2000/svg">
    <path d="M2.341 12.191c.579.54 1.296.809 2.031.809.736 0 1.47-.27 2.03-.809l.881-.847a3.508 3.508 0 0 1-.85-.586c-.065-.061-.12-.127-.178-.192l-.771.741a1.564 1.564 0 0 1-1.112.443 1.59 1.59 0 0 1-1.111-.443 1.472 1.472 0 0 1 0-2.137l2.708-2.603c.294-.268.69-.442 1.109-.442.418 0 .814.157 1.111.443.299.286.48.664.48 1.069 0 .404-.164.783-.46 1.068l-.091.068a.9.9 0 0 0 .152.217c.175.168.404.26.652.26.243 0 .47-.091.642-.253a2.674 2.674 0 0 0-.454-3.313 2.923 2.923 0 0 0-2.032-.809c-.735 0-1.47.27-2.03.809L2.34 8.287a2.698 2.698 0 0 0-.84 2.018 2.67 2.67 0 0 0 .84 1.886zm7.406-6.757.77-.74a1.67 1.67 0 0 1 1.11-.444c.42 0 .815.157 1.112.443a1.473 1.473 0 0 1 0 2.137l-2.708 2.603a1.554 1.554 0 0 1-1.109.442c-.436 0-.814-.157-1.111-.443a1.472 1.472 0 0 1 0-2.137l.071-.068a.88.88 0 0 0-.151-.218.941.941 0 0 0-.653-.259.933.933 0 0 0-.642.253 2.674 2.674 0 0 0 .455 3.313 2.955 2.955 0 0 0 4.06 0l2.708-2.603A2.7 2.7 0 0 0 14.5 5.76a2.7 2.7 0 0 0-.841-1.953A2.925 2.925 0 0 0 11.628 3c-.735 0-1.47.27-2.03.809l-.881.847c.307.156.598.343.851.586.065.06.12.127.179.192z"/>
</svg>
